images/icon-karma.svg

<svg width="64" height="64" viewBox="0 0 64 64" fill="none" xmlns="http://www.w3.org/2000/svg">
<path d="M26.375 52.625H37.625V64H26.375V52.625Z" fill="#676E74"/>
<path d="M32 52.625H37.625V64H32V52.625Z" fill="#333637"/>
<path d="M22.625 47H41.375V56.375H22.625V47Z" fill="#4C545A"/>
<path d="M32 47H41.375V56.375H32V47Z" fill="#52585C"/>
<path d="M45.0122 36.7251C42.6875 38.6377 41.375 41.3374 41.375 44.1499V47H22.625V44.1499C22.625 41.2998 21.3872 38.6377 19.3252 37.0249C14.2627 33.0874 11.375 27.1626 11.375 20.75C11.375 14.5249 14.1499 8.67529 18.9878 4.7373C22.7002 1.7373 27.2373 0 32 0C33.4624 0 34.9624 0.149902 36.4248 0.450195C44.5249 2.1377 50.8999 8.8999 52.3252 17.1128C53.6001 24.6128 50.8999 31.9624 45.0122 36.7251Z" fill="#FFDA2D"/>
<path d="M45.0122 36.7251C42.6875 38.6377 41.375 41.3374 41.375 44.1499V47H32V0C33.4624 0 34.9624 0.149902 36.4248 0.450195C44.5249 2.1377 50.8999 8.8999 52.3252 17.1128C53.6001 24.6128 50.8999 31.9624 45.0122 36.7251Z" fill="#FCAE4A"/>
<path d="M18.875 45.125H45.125V48.875H18.875V45.125Z" fill="#676E74"/>
<path d="M39.9551 10.1426L42.6064 12.7939L38.6279 16.7725L35.9766 14.1211L39.9551 10.1426Z" fill="#FF9100"/>
<path d="M25.3716 24.7266L28.0229 27.3779L24.0439 31.3569L21.3926 28.7056L25.3716 24.7266Z" fill="#FCAE4A"/>
<path d="M30.125 28.25H33.875V33.875H30.125V28.25Z" fill="#FCAE4A"/>
<path d="M38.6279 24.7266L42.6064 28.7056L39.9551 31.3569L35.9766 27.3779L38.6279 24.7266Z" fill="#FF9100"/>
<path d="M39.5 18.875H45.125V22.625H39.5V18.875Z" fill="#FF9100"/>
<path d="M24.0439 10.1426L28.0229 14.1216L25.3716 16.7725L21.3926 12.7939L24.0439 10.1426Z" fill="#FCAE4A"/>
<path d="M18.875 18.875H24.5V22.625H18.875V18.875Z" fill="#FCAE4A"/>
<path d="M30.125 7.625H33.875V13.25H30.125V7.625Z" fill="#FCAE4A"/>
<path d="M0 18.875H7.625V22.625H0V18.875Z" fill="#FFDA2D"/>
<path d="M6.58496 14.8101L0.834961 11.0601L2.91504 7.93994L8.66504 11.6899L6.58496 14.8101Z" fill="#FFDA2D"/>
<path d="M2.91504 33.5601L0.834961 30.4399L6.58496 26.6899L8.66504 29.8101L2.91504 33.5601Z" fill="#FFDA2D"/>
<path d="M56.375 18.875H64V22.625H56.375V18.875Z" fill="#FCAE4A"/>
<path d="M61.085 33.5601L55.335 29.8101L57.415 26.6899L63.165 30.4399L61.085 33.5601Z" fill="#FCAE4A"/>
<path d="M57.415 14.8101L55.335 11.6899L61.085 7.93994L63.165 11.0601L57.415 14.8101Z" fill="#FCAE4A"/>
<path d="M32 7.625H33.875V13.25H32V7.625Z" fill="#FF9100"/>
<path d="M32 28.25H33.875V33.875H32V28.25Z" fill="#FF9100"/>
<path d="M32 45.125H45.125V48.875H32V45.125Z" fill="#333637"/>
<path d="M32 11.375C26.8252 11.375 22.625 15.5752 22.625 20.75C22.625 25.9248 26.8252 30.125 32 30.125C37.1748 30.125 41.375 25.9248 41.375 20.75C41.375 15.5752 37.1748 11.375 32 11.375Z" fill="#FCAE4A"/>
<path d="M32 30.125V11.375C37.1748 11.375 41.375 15.5752 41.375 20.75C41.375 25.9248 37.1748 30.125 32 30.125Z" fill="#FF9100"/>
<path d="M30.125 18.875H33.875V22.625H30.125V18.875Z" fill="#FFDA2D"/>
<path d="M32 18.875H33.875V22.625H32V18.875Z" fill="#FCAE4A"/>
</svg>

<svg xmlns="http://www.w3.org/2000/svg" width="64" height="64"><g fill="none"><path fill="#676E74" d="M26.375 52.625h11.25V64h-11.25z"/><path fill="#333637" d="M32 52.625h5.625V64H32z"/><path fill="#4C545A" d="M22.625 47h18.75v9.375h-18.75z"/><path fill="#52585C" d="M32 47h9.375v9.375H32z"/><path fill="#FFDA2D" d="M45.012 36.725c-2.325 1.913-3.637 4.612-3.637 7.425V47h-18.75v-2.85c0-2.85-1.238-5.512-3.3-7.125-5.062-3.938-7.95-9.862-7.95-16.275a20.585 20.585 0 017.613-16.013C22.7 1.737 27.238 0 32 0c1.462 0 2.962.15 4.425.45 8.1 1.688 14.475 8.45 15.9 16.663 1.275 7.5-1.425 14.85-7.313 19.612z"/><path fill="#FDBF00" d="M45.012 36.725c-2.325 1.913-3.637 4.612-3.637 7.425V47H32V0c1.462 0 2.962.15 4.425.45 8.1 1.688 14.475 8.45 15.9 16.663 1.275 7.5-1.425 14.85-7.313 19.612z"/><path fill="#676E74" d="M18.875 45.125h26.25v3.75h-26.25z"/><path fill="#FF9100" d="M39.956 10.143l2.651 2.651-3.979 3.978-2.651-2.651z"/><path fill="#FDBF00" d="M25.372 24.727l2.651 2.651-3.979 3.979-2.651-2.651zM30.125 28.25h3.75v5.625h-3.75z"/><path fill="#FF9100" d="M38.628 24.727l3.979 3.979-2.651 2.651-3.979-3.979zM39.5 18.875h5.625v3.75H39.5z"/><path fill="#FDBF00" d="M24.044 10.143l3.979 3.979-2.651 2.65-3.979-3.978zM18.875 18.875H24.5v3.75h-5.625zM30.125 7.625h3.75v5.625h-3.75z"/><g fill="#FFDA2D"><path d="M0 18.875h7.625v3.75H0zM6.585 14.81l-5.75-3.75 2.08-3.12 5.75 3.75zM2.915 33.56l-2.08-3.12 5.75-3.75 2.08 3.12z"/></g><path fill="#FDBF00" d="M56.375 18.875H64v3.75h-7.625zM61.085 33.56l-5.75-3.75 2.08-3.12 5.75 3.75zM57.415 14.81l-2.08-3.12 5.75-3.75 2.08 3.12z"/><path fill="#FF9100" d="M32 7.625h1.875v5.625H32zM32 28.25h1.875v5.625H32z"/><path fill="#333637" d="M32 45.125h13.125v3.75H32z"/><path fill="#FDBF00" d="M32 11.375c-5.175 0-9.375 4.2-9.375 9.375s4.2 9.375 9.375 9.375 9.375-4.2 9.375-9.375-4.2-9.375-9.375-9.375z"/><path fill="#FF9100" d="M32 30.125v-18.75c5.175 0 9.375 4.2 9.375 9.375s-4.2 9.375-9.375 9.375z"/><path fill="#FFDA2D" d="M30.125 18.875h3.75v3.75h-3.75z"/><path fill="#FDBF00" d="M32 18.875h1.875v3.75H32z"/></g></svg>
